!!!COM: Anon.
!!!OTL: [no title]
!!!AGN: monody
!!!AMT: simple triple
!! page 207
**kern	**silbe
*ICvox	*
*clefG2	*
*k[]	*
*M3/8	*M3/8
(16e	ya-
16a	|
=1	=1
8b)	|
8b	-ka-
(16cc	-hay-
16b	|
=2	=2
8cc)	|
8cc	-dish
Q32b	|
Q32a	|
(16a	wu-
16f)	|
=3	=3
(16a	-bet
16f)	|
(16f	|
16e),	|
16r	.
16a	ya-
=4	=4
(16b	-re-
16ccc	|
8b)	|
(16b	-ma-
16cc	|
=5	=5
8b)	|
8a	-me-
8a	-di-
=6	=6
(16f	-shi
16e	|
16f)	|
16r	.
(16e	ya-
16a	|
=7	=7
8b)	|
8b	-ka-
(16cc	-hay-
16b	|
=8	=8
8cc)	|
8cc	-dish
Q32b	|
Q32a	|
(16a	ho-
16f)	|
=9	=9
(16a	-ne
16f)	|
(16f	|
16e)	|
16r	.
16a	ya-
=10	=10
(16b	-re-
16cc	|
8b)	|
(16b	-ma-
16cc	|
=11	=11
8b)	|
8a	-me-
8a	-di-
=12	=12
(16f	-shi
16e	|
16f)	|
16r	.
(8e	Ke-
=13	=13
8e)	-n
8e	ke-
(16f	-Ken
16a)	|
=14	=14
16r	.
(16cc	i-
16b)	|
(8a	-ya-
16b)	|
=15	=15
8a	-ye-
(16e	-hu
16f	|
16e	|
16c)	|
=16	=16
16r	.
16e	in-
qf	-de-
8e	-mi-
[8e	-ni
=17	=17
8e]	|
8e	la-
8e	-rgi-
=18	=18
4e	-shi.
==	==
*-	*-
!!!CNT: Ethiopia
!!!OCY: United States
!!!OCL: Ashenafi Kebede
!!!YOR: Ashenafi Kebede, "The Music of Ethiopia, Its Development and Cultural Setting"
!!!YOR: PhD dissertation, Wesleyan University, 1971
!!!PDT: 1971
!!!PPP: Middletown, Connecticut, United States of America
!!!YEC: Electronic Copyright 2000 David Huron
!!!YER: November 2000
!!!YEN: United States of America
!!!ENC: David Huron
!!!RDT: November 26, 2000
!!!EEV: Release 1.0
!!!AIN: vox
